X:1
T:Title
L:1/8
Q:1/4=100
M:4/4
K:Eb
V:1 treble nm="Grand Piano"
V:1
 F2 F2 G2 A2 | BAGF F3 C | F2 F2 B2 BA | G4 z4 | G2 G2 AG B2 | AGBc cB A2 | BAGF G2 A2 | AGFG F4 | %8
w: ????~???????? * * *||||||||
 F2 FF G2 A2 | BAGF F4 | F2 FF B2 BA | G4 z4 | G2 G2 AG B2 | AGBc cBAG | BAGF G2 A2 | AGFG F4 |] %16
w: ||||||||

